T: Lea Rig, The
M: 4/4
L: 1/8
K: Gmaj
|: B>A |GB D2 D2 EF | G3 A G3 B | A3 B cBAG | c2 E2 E2 B>A |
GB D2 D2 EF | G3 A GBdg | e>def gedc | B2 G2 G2 :|
|: d2 |e>de>f g3 B | c>Bc>d e3 G | AGAB cBAG | c2 E2 E2 BA |
GB D2 D2 EF | G3 A GBdg | e>def gedc | B2 G2 G2 :|
